X:201
T: SA SA SA DER ABT IST NICHT ZU HAUSE
N: K2562B
O: Europa, Mitteleuropa, Deutschland, Schlesien
R: Kinder - Lied, Gesellschafts - Spiel
M: 2/4
L: 1/8
K: G
 | G2G2 | G2z
B | ccAA | d2B2
ccAA | ddBB
ccAA | ddBB
G2G2 | G2z2
G2G2 | G2z2

